X:1
T:Fugue
T:Fugue en Fa Mineur
T:Op. 52 - No. 3
T:C. Saint-Saëns
C:C. Saint Saens
%%score { ( 1 3 5 ) | ( 2 4 ) }
L:1/8
Q:1/2=105
M:2/2
K:Ab
V:1 treble nm="Piano" snm="Pno."
V:3 treble 
V:5 treble 
V:2 bass 
V:4 bass 
V:1
"^Animato"!mf! F"_non legato"C=B,=D F[I:staff +1]A,G,[I:staff -1]F | %1
 =EB,=A,C _E[I:staff +1]_G,F,[I:staff -1]E | DFCD B,DA,B, |[I:staff +1] G,B,F,G, =E,DCB, | %4
[I:staff -1] cGFA cE=Dc | BF=EG BDCB | AcGA FAEF | =DFCD =B,AGF | EcBA G_dcB | A2 =d2- dc =B2- | %10
 B_d c2- c_B=Ac | B2 c2 d2 f2 | b2 d2 c2 =e2 | fc=B=d fAGf | eB=Ac e_GFe | dfcd BdAB | GBFG =EdcB | %17
 AcGA FAEF | =DFCD =B,AGF | c'gfa c'e=dc' | bf=eg bdcb | acBa gBAg | fAGf e_GFe | dcBA GBed | %24
 c2 _c2 B4- | B2 __B2 A4 | ae=df a_cBa | _gdce g__BAg | faef dfcd | B2 z2 z4 | e_gde ceBc | %31
 A2 z2 z4 | AEDF BFE_G | cAdF _GdeA | f4 _f4 | Te8{de} | d2 z2 z4 | A2 __E2 D2 _EF | _G4- GEAG | %39
 F2 _F2- FD_GF | E2 __E2 D4- | D2 =D2[I:staff +1] G,2 A,B, |[I:staff -1] A=EA_G F3 _E | D2 z2 z4 | %44
[I:staff +1] C_G,F,A, _C_E,D,C | B,2 __B,2 A,2 _B,C |[I:staff -1] z2 _F2 E2 =FG | AE=DF A_CB,A | %48
 eB=Ac e_GFe | =d2 _d2 c2 =e2 | fc=B=d fAGf | =e2 f4 A2 | G2 d2 c4 | [CF]2 [=EG]2 [FA]2 [Gc]2 | %54
 [Ff]2 A2 G2 =B2 | c2 =d2 e2 =e2 | c2[I:staff +1] =D4[I:staff -1] D2 | eB=Ac e_GFe | d2 z2 z4 | %59
 F2 E2 D2[I:staff +1] CB, |[I:staff -1] fAG=B c=d_e=e |!f! f2 [Afa]2 [G=dg]2 [=A=a][=B=b] | %62
 [cgc']2 [_Ge_g]2 c2 =A2- | fcBf- fB_Af- | fedf- fdcf- | f[cc'][Bb][ff']- [ff'][Bb][Aa][ff']- | %66
 [ff'][Aa][Gg][ff']- [ff'][=e=e'][dd'][ff']- | [ff'][dd'][cc'][ff']- [ff'][=d=d'][cc'][ff']- | %68
 [ff'][cc'][=B=b][=d=d'] [ff'][Aa][Gg][ff'] | [=e=e'][Bb][=A=a][cc'] [_e_e'][_G_g][Ff][ee'] | %70
 [=d=d'][Aa][Gg][Bb] [_d_d'][_F_f][Ee][dd'] | [cc'][Ee][=D=d][cc'] [Bb][_D_d][Cc][Bb] | %72
 [Aa][cc'][Gg][Aa] [Ff][Aa][Ee][Ff] | [Dd][Ff][Cc][Dd] [B,B][Dd][A,A][B,B] | %74
 [_G,_G][B,B][Dd][G_g] [Bb][dd']!8va(![g_g'][bb'] | [d'd'']2!8va)!!ff! B,2 C2 [=EGc=e]2 | %76
 [FAcf]2 z2[K:bass] !^![G,C=E]2 z2 | !^![F,A,CF]2 z2 z4 |] %78
V:2
 z8 | z8 | z8 | z8 | A, z A,2- A,G, F,2- | F,A, G,2- G,F, =E,2 | F,2 G,2 A,2 C2 | F2 F,2 G,2 =B,2 | %8
[I:staff -1] C2 =D2 E2 =E2 |[I:staff +1] F,C,=B,,=D, F,A,,G,,F, | =E,B,,=A,,C, _E,_G,,F,,E, | %11
 D,F,C,D, B,,D,A,,B,, | G,,B,,F,,G,, =E,,D,C,B,, | A,,2 =D,2- D,C, =B,,2- | %14
 B,,=D, C,2- C,_B,,=A,,C, | B,,2 C,2 D,2 F,2 | B,2 D,2 C,2 =E,2 | F,2 G,2 A,2 C2 | %18
 F2 F,2 G,2 =B,2 |[K:treble] =E2 A2- AG F2- | FA G2- GF =E2 | FEDF EDCE | DCB,D CB,=A,C | %23
 B,CD=D EF^FG |[K:bass] A,E,=D,F, A,_C,B,,A, | _G,D,C,E, G,B,,A,,C, | F,2 A,2- A,E,=D,F, | %27
 E,F, _G,2- G,D,C,E, | D,2 z2 z4 | z D,E,F, D,B,,C,D, | E,2 z2 z4 | z C,D,E, C,A,,B,,C, | D,8- | %33
 D,8 | D,F,C,D, B,,D,A,,B,, | =G,,2 =G,2 A,2 A,,2 | D,2 z2 z4 | z8 | z8 | z8 | z2 _G,2 F,2 G,A, | %41
 B,2 F,2 =E,2 F,G, | A,2 B,2- B,B,A,_G, | F,2 _F,,2 E,,2 =F,,G,, | A,,2 __E,,2 D,,2 _E,,F,, | %45
 _G,,D,C,E, _G,_B,,A,,G, | F,2 z2 z4 | C2 _C2 B,2[I:staff -1] =d2 | G2 _G2 F2 =A2 | BF=EG BDCB | %50
 =A2 _A2 G2 =B2 |[I:staff +1] [C,C][G,,G,][F,,F,][A,,A,] [C,C][E,,E,][=D,,=D,][C,C] | %52
 [B,,B,][F,,F,][=E,,=E,][G,,G,] [B,,B,][D,,D,][C,,C,][B,,B,] | %53
 [A,,A,][C,C][G,,G,][A,,A,] [F,,F,][A,,A,][E,,E,][F,,F,] | %54
 [=D,,=D,][F,,F,][C,,C,][D,,D,] [=B,,,=B,,][A,,A,][G,,G,][F,,F,] | %55
 [E,,E,][C,C][B,,B,][A,,A,] [G,,G,][D,D][C,C][B,,B,] | [A,,A,]2 A,2 G,2 [=B,,,=B,,]2 | %57
 [C,,C,]2 _G,2 F,2 [=A,,,=A,,]2 | [B,,,B,,][C,,C,][D,,D,][F,,F,] [B,,B,][D,,D,][C,,C,][=E,,=E,] | %59
 [F,,F,][G,,G,][A,,A,][=A,,=A,] [B,,B,]2 _A,G, | F,2 =B,,=D, C,2 z2 | %61
 [F,,F,][C,,C,][=B,,,=B,,][=D,,=D,] [F,,F,][A,,,A,,][G,,,G,,][F,,F,] | %62
 [E,,E,][B,,,B,,][=A,,,=A,,][C,,C,] [E,,E,][_G,,,_G,,][F,,,F,,][E,,E,] | [D,,D,]4 [C,,C,]4 | %64
 [B,,,B,,]4 [A,,,A,,]4 | [D,,D,]4 [C,,C,]4 | [=B,,,=B,,]4 [_B,,,_B,,]4 | %67
 [=A,,,=A,,]4 [_A,,,_A,,]4 | [G,,,G,,]4 z [A,,A,][G,,G,][F,F] | %69
 [=E,=E][B,,B,][=A,,=A,][C,C] [_E,_E][_G,,_G,][F,,F,][E,E] | %70
 [=D,=D][A,,A,][G,,G,][B,,B,] [_D,_D][_F,,_F,][E,,E,][D,D] | %71
 [C,C][E,,E,][=D,,=D,][C,C] [B,,B,][_D,,_D,][C,,C,][B,,B,] | %72
 [A,,A,][C,C][G,,G,][A,,A,] [F,,F,][A,,A,][E,,E,][F,,F,] | %73
 [D,,D,][F,,F,][C,,C,][D,,D,] [B,,,B,,][D,,D,][A,,,A,,][B,,,B,,] | %74
!ped! [_G,,,_G,,][B,,,B,,][D,,D,][G,,_G,] [B,,B,][D,D][K:treble][G,_G][B,B]!ped-up! | %75
 [Dd]2[K:bass] [B,,,B,,]2 [C,,C,]2 [C,=E,G,C]2 | [F,,A,,C,F,]2 z2 !^![C,,C,]2 z2 | %77
 !^![F,,,F,,]2 z2"_Transcrit en Musescore par\nJeanne Charles\n\nA.D. 9/26/2020\n" z4 |] %78
V:3
 x8 | x8 | x8 | x8 | x8 | x8 | x8 | x8 | x8 | F2 z F =D3 D | G3 _G C3 C | FDEF DBcd | BGAB GBAG | %13
 c2 z[I:staff +1] C =B,[I:staff -1]E=DA | G z z[I:staff +1] B, =A,[I:staff -1]_DC[I:staff +1]A, | %15
 x8 |[I:staff -1] D2 z2 z2 G2 | C2 z2 z4 | x8 | x8 | x8 | x8 | x8 | x8 | A2 A2- AE=DF | %25
 EF _G2- GDCE | x8 | x8 | x8 | DFCD B,DA,B, | x8 | CEB,C[I:staff +1] A,C_G,A, | x8 | x8 | %34
[I:staff -1] D4 d4- | d4 c4 | d2 _F2 E2 =FG | x8 | z2 __B2 A2 _Bc | d2 G2 _G2 _AB | _c2 =c2 dFBA | %41
 _G2 =B2 c=Gc_B |[I:staff +1] C2[I:staff -1] D4 C2 | D[I:staff +1]A,=G,B, D=F,E,D | x8 | x8 | x8 | %47
 x8 | x8 | x8 | x8 |[I:staff -1] cB A4 F2 | =EF G2- GFEG | x8 | x2 F2- F2 E=D | GEFA BGB=d | %56
 fc=B=d fAGf | G2[I:staff +1] C4[I:staff -1] C2 | F2 x6 | z4 FGAc | %60
[I:staff +1] A,2[I:staff -1] =DF =EGc_B | A2 x6 | x4 F4- | [FA] x7 | x8 | x8 | x8 | x8 | x8 | x8 | %70
 x8 | x8 | x8 | x8 | x6!8va(! x2 | x2!8va)! x6 | x4[K:bass] x4 | x8 |] %78
V:4
 x8 | x8 | x8 | x8 | x8 | x8 | x8 | x8 | x8 | x8 | x8 | x8 | x8 | x8 | x8 | %15
 B,2[I:staff -1] E2 F2 C2 | x8 | x8 | x8 |[I:staff +1][K:treble] C2 z C A,3 A, | G,3 G, C3 C | %21
 F x7 | x8 | x8 |[K:bass] x8 | x8 |[I:staff -1] D2 _C2[I:staff +1] B,4- | B,2 __B,2 A,4- | %28
 A,[I:staff -1]F_GA FDEF | x8 |[I:staff +1] _G,[I:staff -1]EF_G ECDE | x8 | %32
[I:staff +1] F,2 A,4 _G,2- | G,2 F,2 B,2 C2 | x8 | x8 | x8 | x8 | x8 | x8 | x8 | x8 | x8 | x8 | %44
 x8 | x8 | DA,=G,B, D=F,E,D | x8 | x8 | x8 | x8 | x8 | x8 | x8 | x8 | x8 | x8 | x8 | x8 | x8 | x8 | %61
 x8 | x8 | x2 [F,F]2 x2 [F,F]2 | x2 [F,F]2 x2 [F,F]2 | x2 [F,F]2 x2 [F,F]2 | x2 [F,F]2 x2 [F,F]2 | %67
 x2 [F,F]2 x2 [F,F]2 | x2 [F,F]2 x4 | x8 | x8 | x8 | x8 | x8 | x6[K:treble] x2 | x2[K:bass] x6 | %76
 x8 | x8 |] %78
V:5
 x8 | x8 | x8 | x8 | x8 | x8 | x8 | x8 | x8 | x8 | x8 | x8 | x8 | x8 | x8 | x8 | x8 | x8 | x8 | %19
 x8 | x8 | x8 | x8 | x8 | x8 | x8 | x8 | x8 | x8 | x8 | x8 | x8 | x8 | x8 | x8 | x8 | x8 | x8 | %38
 x8 | x8 | x8 | x8 | x8 | x8 | x8 | x8 | x8 | x8 | x8 | x8 | x8 | x8 | x8 | x8 | x8 | x8 | x8 | %57
 x8 | x8 | x8 | x8 | x8 | x4 f4- | x8 | x8 | x8 | x8 | x8 | x8 | x8 | x8 | x8 | x8 | x8 | %74
 x6!8va(! x2 | x2!8va)! x6 | x4[K:bass] x4 | x8 |] %78

